X: 1
T: Reel des journaliers
O: Qu\'ebec
R: reel
S: Fiddle Hell Online 2020-11-5 Eric Favreau workshop
Z: 2020 John Chambers <jc:trillian.mit.edu>
N: Modified version to get 2 4-bar strains.
M: 2/4
L: 1/16
K: G
z(A |  "G"B2)BA B2BA | B2BA "D"GABc |  "G"B2BA B2ge | "D"dBAB "G"G2 ::\
B(G | "Em"E2)GE BEGE | "D"D2FD ADFD | "Em"EFGA BGge | "D"dBAB "G"G2 :|
%%text Simplified; the original has the 1st beat of bar 3 repeated.
